X:18
T:Au coin du feu
R:Chapeloise
Z:Transcrit et/ou corrig par Michel BELLON - 2006-04-09
Z:Pour toute observation mailto:galouvielle@free.fr
M:6/8
L:1/8
Q:3/8=120
K:Cm
G |: cGc ece | dBd fdB | cGc ece | f2f g2G | cGc ece | dBd f2f | g2g f2f | g6 ||
g3- gz/c/e/g/ | f3- fz/B/d/f/ | ee2- e2e | d6 | g3- gz/c/e/g/ | f3- fz/B/d/f/ | e2c d2B | c6 |]
%%footer $D   Galouvielle-MBe 2006 \nChanson (France)
